X:483
T: Kleiner Mann und groe Frau (192a), S. 418
N: T0371
O: Luxemburg
S: Singendes Volk, Esch-Alzette, 1937 posth.]
N: Straen, fff Witry, 10.1.1933
R: Hochzeits-, Ehestandslied]
M: 3/8
L: 1/16
K: F
C2 | F3FA2 | c3cA2 | c4d2 | c4
C2 | F3FA2 | c3cA2 | c4d2 | c4
cc | f3ff2 | d2B2B2 |
dddddd | c2c2A2 | B2G2c2 | F2z2

@@@ Tune index: 8537
